icon-themes/breeze_svg/cmd/lc_resetattributes.svg

<svg viewBox="0 0 24 24" xmlns="http://www.w3.org/2000/svg"><path d="m9 4v1h5l-6 14h-3v1h10v-1h-5l6-14h3v-1z" fill="#4d4d4d"/><path d="m15.990234 15.009766-.990234.990234 2.009766 2.009766-2.009766 2.009765.990234.990235 2.009766-2.009766 2.009766 2.009766.990234-.990235-2.009766-2.009765 2.009766-2.009766-.990234-.990234-2.009766 2.009765z" fill="#da4453"/></svg>

<svg xmlns="http://www.w3.org/2000/svg" viewBox="0 0 24 24">
 <path 
     style="fill:#4d4d4d" 
     d="M 9 4 L 9 5 L 14 5 L 8 19 L 5 19 L 5 20 L 15 20 L 15 19 L 10 19 L 16 5 L 19 5 L 19 4 L 9 4 z "
     />
 <path 
     style="fill:#da4453" 
     d="M 15.990234 15.009766 L 15 16 L 17.009766 18.009766 L 15 20.019531 L 15.990234 21.009766 L 18 19 L 20.009766 21.009766 L 21 20.019531 L 18.990234 18.009766 L 21 16 L 20.009766 15.009766 L 18 17.019531 L 15.990234 15.009766 z "
     />
 </svg>
